public/sprites/shapes.svg

<svg width="0" height="0" class="hidden"><symbol viewBox="0 0 24 24" fill="none" xmlns="http://www.w3.org/2000/svg" id="star-01"><g id="star-01"><path id="Icon" d="M11.2827 3.45332C11.5131 2.98638 11.6284 2.75291 11.7848 2.67831C11.9209 2.61341 12.0791 2.61341 12.2152 2.67831C12.3717 2.75291 12.4869 2.98638 12.7174 3.45332L14.9041 7.88328C14.9721 8.02113 15.0061 8.09006 15.0558 8.14358C15.0999 8.19096 15.1527 8.22935 15.2113 8.25662C15.2776 8.28742 15.3536 8.29854 15.5057 8.32077L20.397 9.03571C20.9121 9.11099 21.1696 9.14863 21.2888 9.27444C21.3925 9.38389 21.4412 9.5343 21.4215 9.68377C21.3988 9.85558 21.2124 10.0372 20.8395 10.4004L17.3014 13.8464C17.1912 13.9538 17.136 14.0076 17.1004 14.0715C17.0689 14.128 17.0487 14.1902 17.0409 14.2545C17.0321 14.3271 17.0451 14.403 17.0711 14.5547L17.906 19.4221C17.994 19.9355 18.038 20.1922 17.9553 20.3445C17.8833 20.477 17.7554 20.57 17.6071 20.5975C17.4366 20.6291 17.2061 20.5078 16.7451 20.2654L12.3724 17.9658C12.2361 17.8942 12.168 17.8584 12.0962 17.8443C12.0327 17.8318 11.9673 17.8318 11.9038 17.8443C11.832 17.8584 11.7639 17.8942 11.6277 17.9658L7.25492 20.2654C6.79392 20.5078 6.56341 20.6291 6.39297 20.5975C6.24468 20.57 6.11672 20.477 6.04474 20.3445C5.962 20.1922 6.00603 19.9355 6.09407 19.4221L6.92889 14.5547C6.95491 14.403 6.96793 14.3271 6.95912 14.2545C6.95132 14.1902 6.93111 14.128 6.89961 14.0715C6.86402 14.0076 6.80888 13.9538 6.69859 13.8464L3.16056 10.4004C2.78766 10.0372 2.60121 9.85558 2.57853 9.68377C2.55879 9.5343 2.60755 9.38389 2.71125 9.27444C2.83044 9.14863 3.08797 9.11099 3.60304 9.03571L8.49431 8.32077C8.64642 8.29854 8.72248 8.28742 8.78872 8.25662C8.84736 8.22935 8.90016 8.19096 8.94419 8.14358C8.99391 8.09006 9.02793 8.02113 9.09597 7.88328L11.2827 3.45332Z" stroke="currentColor" stroke-width="2" stroke-linecap="round" stroke-linejoin="round"></path></g></symbol></svg>

<svg width="0" height="0"><symbol xmlns="http://www.w3.org/2000/svg" id="star-01" fill="none" viewBox="0 0 24 24"><path id="Icon" stroke="currentColor" stroke-linecap="round" stroke-linejoin="round" stroke-width="2" d="M11.283 3.453c.23-.467.345-.7.502-.775a.5.5 0 0 1 .43 0c.157.075.272.308.502.775l2.187 4.43c.068.138.102.207.152.26a.502.502 0 0 0 .155.114c.067.03.143.042.295.064l4.891.715c.515.075.773.113.892.238a.5.5 0 0 1 .133.41c-.023.172-.21.353-.582.716l-3.54 3.446c-.11.108-.165.162-.2.226a.5.5 0 0 0-.06.183c-.009.072.004.148.03.3l.835 4.867c.088.514.132.77.05.922a.5.5 0 0 1-.349.253c-.17.032-.4-.09-.862-.332l-4.373-2.3c-.136-.07-.204-.107-.276-.12a.498.498 0 0 0-.192 0c-.072.013-.14.05-.276.12l-4.373 2.3c-.461.243-.692.364-.862.332a.5.5 0 0 1-.348-.253c-.083-.152-.039-.409.05-.922l.834-4.867c.026-.152.039-.228.03-.3a.5.5 0 0 0-.06-.184c-.035-.063-.09-.117-.2-.225L3.16 10.4c-.373-.363-.56-.544-.582-.716a.5.5 0 0 1 .132-.41c.12-.125.377-.163.892-.238l4.891-.715c.152-.022.228-.034.295-.064a.5.5 0 0 0 .155-.113c.05-.054.084-.123.152-.26l2.187-4.43Z"/></symbol></svg>
